X:4
T:Danny Ab's
Z: id:dc-slide-22
M:6/8
L:1/8
K:G Major
B3 cBc|d3-d2e|dBG dBG|A3 AGA|!
B3 cBc|d3-d2g|fed cBA|G3 G3:|!
g2d B2g|f2d c3|ded c2A|ded B3|!
g2d B2g|f2d c2B|ABc def|g3 g3:|!

